X:605
T:My Love She's But A Lassie Yet #2
C:Joe Buchanan's Scottish Tome - Page 174.2
I:174 2
Z:Carl Allison
R:Reel
L:1/8
M:4/4
K:D
(d/c/) | "D"dD FA | "D"dD D(d/c/) | "D"dD FA | "Em"eE "A7"E(d/c/) |
"D"dD FA | "D"Bg f>e | "D"d/c/B/A/ "A7"B/c/d/e/ | "D"fd d :|
(f/g/) | "D"af "A7"ge | "D"fd d(f/g/) | "D"af "B7"g/f/e/a/ | "Em"be "A7"e(f/g/) |
"D"af "A/C#"ge | "Bm"fd "A"ec | "G"d/c/B/A/ "A7"B/c/d/e/ | "D"fd d :|

